X:5674
T:Gan ainm
R:Reel
S:
H:
N:
D:Nomos tape of dubious origin
Z:Adrian Scahill
M:4/4
L:1/8
K:G
G3B cABA|GABd g3f|ecc2 dBB2|cAAB AGEF|\
GABd cABA|GABd g3f|ecc2 dBB2|cAFA G4:||\
g3f gbag|e3c egfe|dBB2 gBB2|1 cAAG ABcd|g3f gbag|e3c egfe|dBB2 gBB2|cAFA G4:|2 cAAB AGFG| ECEG DB,DE|GABd g3f|ecc2 dBB2|cAFA G4||
